packages/core/src/svgs/networks/mono/xrp.svg

<svg width="24" height="24" viewBox="0 0 24 24" fill="none" xmlns="http://www.w3.org/2000/svg">
<path d="M19.0669 3.25H21.9612L15.9399 9.67379C15.4327 10.2097 14.822 10.6375 14.1449 10.9309C13.4676 11.2244 12.738 11.3776 11.9999 11.3812C11.2619 11.3776 10.5323 11.2244 9.85518 10.9309C9.17794 10.6375 8.56728 10.2097 8.05997 9.67379L2.02874 3.25H4.93311L9.50241 8.1706C10.8406 9.58994 13.1593 9.58994 14.4975 8.1706L19.0669 3.25ZM4.89373 20.7399H2L8.05935 14.3356C8.56757 13.7994 9.1791 13.3717 9.85708 13.0781C10.5352 12.7847 11.2655 12.6316 12.0043 12.6281C12.7431 12.6317 13.4736 12.7848 14.1516 13.0784C14.8297 13.372 15.4412 13.7998 15.9494 14.3362L22 20.7499H19.1055L14.5074 15.8486C13.1687 14.43 10.8506 14.43 9.51248 15.8486L4.89373 20.7399Z" fill="white"/>
</svg>

<svg xmlns="http://www.w3.org/2000/svg" width="24" height="24" fill="none" viewBox="0 0 24 24">
    <path fill="#fff" d="M19.067 3.25h2.894L15.94 9.674A5.46 5.46 0 0 1 12 11.38a5.46 5.46 0 0 1-3.94-1.707L2.029 3.25h2.904l4.57 4.92c1.338 1.42 3.656 1.42 4.995 0zM4.894 20.74H2l6.06-6.404a5.47 5.47 0 0 1 3.944-1.708 5.47 5.47 0 0 1 3.945 1.708L22 20.75h-2.895l-4.598-4.901c-1.338-1.419-3.656-1.419-4.995 0z"/>
</svg>
